meshus/spain_binx.svg

<svg width="400px" height="400px"><g id="delaunay"><circle r="10" cx="334.69424922054657" cy="149.46485423949804"></circle><path d="M334.69424922054657,149.46485423949804L183.29313527752987,54.06989799048904L363.49570041123104,106.38563852207908Z"></path><circle r="10" cx="120.3069753384376" cy="196.06365459917188"></circle><path d="M120.3069753384376,196.06365459917188L148.0107352912517,56.51436117229264L183.29313527752987,54.06989799048904Z"></path><path d="M123.94372941267915,348.2984685272689L36.50880117643567,338.32844942698733L81.15596677076624,315.72594278842956Z"></path><circle r="10" cx="148.0107352912517" cy="56.51436117229264"></circle><circle r="10" cx="81.15596677076624" cy="315.72594278842956"></circle><path d="M123.94372941267915,348.2984685272689L81.15596677076624,315.72594278842956L120.3069753384376,196.06365459917188Z"></path><path d="M123.94372941267915,348.2984685272689L120.3069753384376,196.06365459917188L241.77855217350617,241.3585281736704Z"></path><circle r="10" cx="123.94372941267915" cy="348.2984685272689"></circle><path d="M123.94372941267915,348.2984685272689L241.77855217350617,241.3585281736704L352.1342441624205,236.530122640954Z"></path><circle r="10" cx="183.29313527752987" cy="54.06989799048904"></circle><circle r="10" cx="241.77855217350617" cy="241.3585281736704"></circle><path d="M241.77855217350617,241.3585281736704L120.3069753384376,196.06365459917188L183.29313527752987,54.06989799048904Z"></path><path d="M241.77855217350617,241.3585281736704L183.29313527752987,54.06989799048904L334.69424922054657,149.46485423949804Z"></path><circle r="10" cx="36.50880117643567" cy="338.32844942698733"></circle><path d="M241.77855217350617,241.3585281736704L334.69424922054657,149.46485423949804L352.1342441624205,236.530122640954Z"></path><path d="M36.50880117643567,338.32844942698733L148.0107352912517,56.51436117229264L120.3069753384376,196.06365459917188Z"></path><circle r="10" cx="352.1342441624205" cy="236.530122640954"></circle><path d="M36.50880117643567,338.32844942698733L120.3069753384376,196.06365459917188L81.15596677076624,315.72594278842956Z"></path><path d="M352.1342441624205,236.530122640954L334.69424922054657,149.46485423949804L363.49570041123104,106.38563852207908Z"></path><circle r="10" cx="363.49570041123104" cy="106.38563852207908"></circle></g></svg>

<?xml version="1.0" encoding="utf-8"?>
<!-- Generator: Adobe Illustrator 15.0.0, SVG Export Plug-In . SVG Version: 6.00 Build 0)  -->
<!DOCTYPE svg PUBLIC "-//W3C//DTD SVG 1.1//EN" "http://www.w3.org/Graphics/SVG/1.1/DTD/svg11.dtd">
<svg version="1.1" id="Layer_1" xmlns="http://www.w3.org/2000/svg" xmlns:xlink="http://www.w3.org/1999/xlink" x="0px" y="0px"
	 width="400px" height="400px" viewBox="0 0 400 400" enable-background="new 0 0 400 400" xml:space="preserve">
<g id="delaunay">
	<path fill="none" stroke="#000000" stroke-miterlimit="10" d="M334.694,149.465L183.293,54.07l180.203,52.316L334.694,149.465z"/>
	<path fill="none" stroke="#000000" stroke-miterlimit="10" d="M120.307,196.063l27.704-139.549l35.282-2.444L120.307,196.063z"/>
	<path fill="none" stroke="#000000" stroke-miterlimit="10" d="M123.944,348.299l-87.435-9.971l44.647-22.602L123.944,348.299z"/>
	<path fill="none" stroke="#000000" stroke-miterlimit="10" d="M123.944,348.299l-42.788-32.572l39.151-119.663L123.944,348.299z"/>
	<path fill="none" stroke="#000000" stroke-miterlimit="10" d="M123.944,348.299l-3.637-152.235l121.471,45.295L123.944,348.299z"/>
	<path fill="none" stroke="#000000" stroke-miterlimit="10" d="M123.944,348.299l117.834-106.94l110.355-4.828L123.944,348.299z"/>
	<path fill="none" stroke="#000000" stroke-miterlimit="10" d="M241.778,241.358l-121.471-45.295L183.293,54.07L241.778,241.358z"/>
	<path fill="none" stroke="#000000" stroke-miterlimit="10" d="M241.778,241.358L183.293,54.07l151.401,95.395L241.778,241.358z"/>
	<path fill="none" stroke="#000000" stroke-miterlimit="10" d="M241.778,241.358l92.916-91.894l17.439,87.065L241.778,241.358z"/>
	<path fill="none" stroke="#000000" stroke-miterlimit="10" d="M36.509,338.328L148.011,56.514l-27.704,139.549L36.509,338.328z"/>
	<path fill="none" stroke="#000000" stroke-miterlimit="10" d="M36.509,338.328l83.798-142.265L81.156,315.727L36.509,338.328z"/>
	<path fill="none" stroke="#000000" stroke-miterlimit="10" d="M352.134,236.53l-17.439-87.065l28.802-43.079L352.134,236.53z"/>
</g>
</svg>
